src/assets/icons/remotes/box.svg

<svg width="24" height="24" viewBox="0 0 24 24" fill="currentColor" xmlns="http://www.w3.org/2000/svg">
    <path
        d="M2.80013 6.37891C2.38444 6.37891 2.04219 6.71334 2 7.12903V13.7926C2.04219 15.9164 3.75342 17.6183 5.87565 17.6183C7.37434 17.6183 8.66359 16.7791 9.28874 15.5304C9.95445 16.7369 11.2453 17.6183 12.7018 17.6183C14.824 17.6183 16.5774 15.8649 16.5774 13.7426C16.6181 11.5782 14.8631 9.82948 12.7393 9.82948C11.2422 9.82948 9.94977 10.6687 9.32622 11.9174C8.66047 10.7109 7.36966 9.82948 5.91315 9.82948C5.03957 9.82948 4.2535 10.1295 3.58777 10.6296V7.12903C3.58777 6.71334 3.25802 6.37891 2.80013 6.37891ZM21.1157 9.80448C20.9188 9.82479 20.7407 9.91231 20.6156 10.0795L18.9028 12.3674L17.1525 10.1295C16.9025 9.79667 16.4102 9.71384 16.0774 10.0045C15.7445 10.2546 15.6523 10.7468 15.9023 11.0797L17.9027 13.7426L15.9023 16.3681C15.6523 16.701 15.7445 17.1948 16.0774 17.4432C16.4102 17.6933 16.9025 17.6511 17.1525 17.3183L18.8653 15.0304L20.5656 17.3183C20.8156 17.6511 21.3204 17.7339 21.6533 17.4432C22.0268 17.1948 22.0612 16.7431 21.8533 16.3681L19.8655 13.7051L21.8533 11.0422C22.1034 10.7093 22.0237 10.2045 21.6908 9.9545C21.5251 9.82948 21.3126 9.78416 21.1157 9.80448ZM5.87565 11.3673C7.1665 11.3673 8.20104 12.4143 8.20104 13.7051C8.20104 14.996 7.1665 16.0305 5.87565 16.0305C4.58637 16.0305 3.55026 14.996 3.55026 13.7051C3.55026 12.4143 4.58637 11.3673 5.87565 11.3673ZM12.7393 11.3673C14.0301 11.3673 15.0772 12.4143 15.0772 13.7051C15.0772 14.996 14.0301 16.0305 12.7393 16.0305C11.45 16.0305 10.4139 14.996 10.4139 13.7051C10.4139 12.4143 11.45 11.3673 12.7393 11.3673Z" />
</svg>

<svg xmlns="http://www.w3.org/2000/svg" width="24" height="24" fill="currentColor" viewBox="0 0 24 24"><path d="M2.8 6.379c-.416 0-.758.334-.8.75v6.664c.042 2.123 1.753 3.825 3.876 3.825a3.79 3.79 0 0 0 3.413-2.088c.665 1.207 1.956 2.088 3.413 2.088 2.122 0 3.875-1.753 3.875-3.875a3.846 3.846 0 0 0-3.838-3.914c-1.497 0-2.79.84-3.413 2.088C8.66 10.711 7.37 9.83 5.913 9.83c-.873 0-1.66.3-2.325.8v-3.5c0-.416-.33-.75-.788-.75m18.316 3.425a.7.7 0 0 0-.5.275l-1.713 2.288-1.75-2.238a.74.74 0 0 0-1.076-.124c-.333.25-.425.742-.175 1.075l2 2.663-2 2.625c-.25.333-.157.827.175 1.075.333.25.825.208 1.075-.125l1.713-2.288 1.7 2.288c.25.333.755.416 1.088.125.374-.248.408-.7.2-1.075l-1.988-2.663 1.988-2.663c.25-.333.17-.838-.162-1.088a.82.82 0 0 0-.575-.15m-15.24 1.563A2.33 2.33 0 0 1 8.2 13.705a2.317 2.317 0 0 1-2.325 2.326 2.32 2.32 0 0 1-2.326-2.326 2.33 2.33 0 0 1 2.326-2.338m6.863 0a2.34 2.34 0 0 1 2.338 2.338 2.33 2.33 0 0 1-2.338 2.326 2.32 2.32 0 0 1-2.325-2.326 2.33 2.33 0 0 1 2.325-2.338"/></svg>
